client/src/assets/ic-alert.svg

<svg width="54" height="54" viewBox="0 0 54 54" fill="none" xmlns="http://www.w3.org/2000/svg">
<circle cx="27" cy="27" r="25.5" stroke="#D63E49" stroke-width="3"/>
<path d="M27.3214 33.4685C27.1074 33.4788 26.893 33.4527 26.6925 33.3922C26.492 33.3316 26.31 33.2379 26.1583 33.1172C26.0067 32.9964 25.889 32.8515 25.8129 32.6919C25.7368 32.5323 25.7041 32.3616 25.717 32.1912V15.4223C25.7041 15.2519 25.7368 15.0813 25.8129 14.9217C25.889 14.7621 26.0067 14.6171 26.1583 14.4964C26.31 14.3757 26.492 14.2819 26.6925 14.2214C26.893 14.1608 27.1074 14.1348 27.3214 14.145C27.5355 14.1348 27.7498 14.1608 27.9503 14.2214C28.1508 14.2819 28.3329 14.3757 28.4845 14.4964C28.6361 14.6171 28.7538 14.7621 28.8299 14.9217C28.906 15.0813 28.9387 15.2519 28.9258 15.4223V32.1912C28.9387 32.3616 28.906 32.5323 28.8299 32.6919C28.7538 32.8515 28.6361 32.9964 28.4845 33.1172C28.3329 33.2379 28.1508 33.3316 27.9503 33.3922C27.7498 33.4527 27.5355 33.4788 27.3214 33.4685ZM28.9258 38.5777V37.3004C28.9387 37.13 28.906 36.9593 28.8299 36.7997C28.7538 36.6401 28.6361 36.4952 28.4845 36.3745C28.3329 36.2537 28.1508 36.16 27.9503 36.0994C27.7498 36.0389 27.5355 36.0129 27.3214 36.0231C27.1074 36.0129 26.893 36.0389 26.6925 36.0994C26.492 36.16 26.31 36.2537 26.1583 36.3745C26.0067 36.4952 25.889 36.6401 25.8129 36.7997C25.7368 36.9593 25.7041 37.13 25.717 37.3004V38.5777C25.7041 38.7481 25.7368 38.9187 25.8129 39.0783C25.889 39.2379 26.0067 39.3829 26.1583 39.5036C26.31 39.6243 26.492 39.7181 26.6925 39.7786C26.893 39.8392 27.1074 39.8652 27.3214 39.855C27.5355 39.8652 27.7498 39.8392 27.9503 39.7786C28.1508 39.7181 28.3329 39.6243 28.4845 39.5036C28.6361 39.3829 28.7538 39.2379 28.8299 39.0783C28.906 38.9187 28.9387 38.7481 28.9258 38.5777Z" fill="#D63E49"/>
</svg>

<svg xmlns="http://www.w3.org/2000/svg" viewBox="0 0 54 54">
  <circle cx="27" cy="27" r="25.5" fill-opacity=".004" stroke="currentColor" stroke-width="3"/>
  <path fill="currentColor" d="M27.321 33.468a1.874 1.874 0 0 1-.629-.076c-.2-.06-.382-.154-.534-.275a1.22 1.22 0 0 1-.345-.425.985.985 0 0 1-.096-.5v-16.77a.985.985 0 0 1 .096-.5c.076-.16.194-.305.345-.426a1.6 1.6 0 0 1 .534-.275 1.9 1.9 0 0 1 .63-.076c.213-.01.428.016.628.076s.383.155.535.275c.151.121.269.266.345.426.076.16.109.33.096.5v16.77a.985.985 0 0 1-.096.5 1.22 1.22 0 0 1-.345.425 1.6 1.6 0 0 1-.535.275c-.2.06-.415.087-.629.076Zm1.605 5.11V37.3a.985.985 0 0 0-.096-.5 1.218 1.218 0 0 0-.345-.425 1.6 1.6 0 0 0-.535-.276c-.2-.06-.415-.086-.629-.076a1.876 1.876 0 0 0-.629.076 1.6 1.6 0 0 0-.534.276c-.151.12-.269.265-.345.425a.985.985 0 0 0-.096.5v1.278c-.013.17.02.34.096.5.076.16.194.305.345.426a1.6 1.6 0 0 0 .534.275 1.9 1.9 0 0 0 .63.076c.213.01.428-.016.628-.076s.383-.155.535-.275c.151-.121.269-.266.345-.426a.985.985 0 0 0 .096-.5Z"/>
</svg>
